X: 3
T: Mna Na HEireann
R: barndance
M: 4/4
L: 1/8
K: Gmaj
A2B | "am" cg2-g3- | g{g}a2~g | "D" fA2-A3- |
A3-AAB | "C" c3-c2B/c/ |[1 "D" A6- | ~A6- | A3 :|2 "D" d3-dcA | "G" B/d/G2-G3- ||
G3-G2 G| "em" g6- | g3- gab |"am" a2g-g ~ed |
"C" e6- | e3 "D" dcB | "em" Ag2-g3- | g3 "am" {g}a2~g|
"D" fd2-d3 | "am" eA2- "D" A3- | A3-A~GF | "G" G6- | G3 ||


Tune 3890	Setting 16796

